; generated by Slic3r 1.2.9 on 2017-11-19 at 14:18:48

; external perimeters extrusion width = 0.50mm
; perimeters extrusion width = 0.72mm
; infill extrusion width = 0.72mm
; solid infill extrusion width = 0.72mm
; top infill extrusion width = 0.72mm

M107
M104 P200 ; set temperature
G28 ; home all axes
G1 Z5 F5000 ; lift nozzle

M109 P200 ; wait for temperature to be reached
G21 ; set units to millimeters
G90 ; use absolute coordinates
G1 Z0.350 F7800.000
G1 A-2.00000 F2400.00000
G1 X86.466 Y86.482 F7800.000
G1 A0.00000 F2400.00000
G1 X87.114 Y85.865 A0.02768 F1800.000
G1 X87.777 Y85.287 A0.05490
G1 X88.542 Y84.682 A0.08509
G1 X89.408 Y84.072 A0.11785
G1 X90.035 Y83.673 A0.14086
G1 X90.843 Y83.205 A0.16972
G1 X91.828 Y82.704 A0.20394
G1 X92.602 Y82.360 A0.23013
G1 X93.385 Y82.052 A0.25616
G1 X94.383 Y81.715 A0.28876
G1 X95.364 Y81.441 A0.32028
G1 X96.181 Y81.256 A0.34621
G1 X97.294 Y81.061 A0.38115
G1 X98.367 Y80.937 A0.41457
G1 X99.318 Y80.878 A0.44406
G1 X100.007 Y80.871 A0.46538
G1 X100.711 Y80.879 A0.48718 F1800.000
G1 X101.734 Y80.944 A0.51888
G1 X102.591 Y81.045 A0.54559
G1 X103.391 Y81.172 A0.57064
G1 X104.192 Y81.335 A0.59595
G1 X104.897 Y81.504 A0.61837
G1 X105.678 Y81.730 A0.64353
G1 X106.518 Y82.011 A0.67093
G1 X107.198 Y82.272 A0.69347
G1 X108.026 Y82.632 A0.72141
G1 X108.768 Y82.994 A0.74697
G1 X109.502 Y83.393 A0.77280
G1 X110.117 Y83.762 A0.79501
G1 X110.811 Y84.213 A0.82061
G1 X111.458 Y84.680 A0.84529
G1 X112.109 Y85.187 A0.87083
G1 X112.556 Y85.561 A0.88885
G1 X113.220 Y86.167 A0.91667
G1 X113.684 Y86.624 A0.93683
G1 X114.203 Y87.178 A0.96032
G1 X114.805 Y87.879 A0.98892
G1 X115.323 Y88.547 A1.01506
G1 X115.752 Y89.138 A1.03766
G1 X116.284 Y89.954 A1.06779
G1 X116.743 Y90.744 A1.09608
G1 X117.112 Y91.443 A1.12051
G1 X117.452 Y92.155 A1.14493
G1 X117.765 Y92.896 A1.16983
G1 X118.113 Y93.842 A1.20101
G1 X118.354 Y94.600 A1.22564
G1 X118.583 Y95.448 A1.25281
G1 X118.743 Y96.164 A1.27551
G1 X118.910 Y97.099 A1.30489
G1 X118.995 Y97.714 A1.32409
G1 X119.081 Y98.581 A1.35106
G1 X119.124 Y99.393 A1.37622
G1 X119.127 Y100.393 A1.40715
G1 X119.098 Y101.143 A1.43039
G1 X119.042 Y101.843 A1.45212
G1 X118.943 Y102.674 A1.47800
G1 X118.789 Y103.591 A1.50679
G1 X118.587 Y104.522 A1.53626
G1 X118.392 Y105.257 A1.55977
G1 X118.165 Y105.996 A1.58369
G1 X117.667 Y107.333 A1.62785
G1 X117.324 Y108.109 A1.65408
G1 X116.885 Y108.984 A1.68437
G1 X116.413 Y109.821 A1.71411
G1 X115.994 Y110.490 A1.73853
G1 X115.669 Y110.968 A1.75643
G1 X115.089 Y111.753 A1.78662
G1 X114.678 Y112.265 A1.80694
G1 X114.025 Y113.004 A1.83745
G1 X113.493 Y113.556 A1.86119
G1 X112.879 Y114.141 A1.88742
G1 X112.359 Y114.596 A1.90880
G1 X111.651 Y115.163 A1.93686
G1 X110.877 Y115.729 A1.96653
G1 X110.398 Y116.049 A1.98435
G1 X109.741 Y116.457 A2.00828
G1 X109.002 Y116.872 A2.03453
G1 X108.151 Y117.299 A2.06396
G1 X107.361 Y117.650 A2.09073
G1 X106.640 Y117.933 A2.11470
G1 X106.005 Y118.156 A2.13549
G1 X105.165 Y118.410 A2.16265
G1 X104.312 Y118.628 A2.18990
G1 X103.429 Y118.810 A2.21779
G1 X102.589 Y118.943 A2.24411
G1 X101.773 Y119.039 A2.26952
G1 X101.076 Y119.093 A2.29116
G1 X100.494 Y119.117 A2.30920
G1 X99.427 Y119.115 A2.34220
G1 X98.509 Y119.063 A2.37064
G1 X97.710 Y118.982 A2.39550
G1 X96.822 Y118.854 A2.42325
G1 X95.978 Y118.691 A2.44987
G1 X95.249 Y118.517 A2.47304
G1 X94.504 Y118.312 A2.49695
G1 X93.888 Y118.116 A2.51695
G1 X93.015 Y117.796 A2.54573
G1 X92.181 Y117.447 A2.57370
G1 X91.478 Y117.114 A2.59777
G1 X90.606 Y116.653 A2.62828
G1 X89.930 Y116.251 A2.65264
G1 X89.256 Y115.814 A2.67747
G1 X88.673 Y115.403 A2.69954
G1 X88.231 Y115.068 A2.71672
G1 X87.548 Y114.509 A2.74400
G1 X86.967 Y113.990 A2.76813
G1 X86.281 Y113.317 A2.79784
G1 X85.632 Y112.617 A2.82739
G1 X85.179 Y112.077 A2.84919
G1 X84.566 Y111.282 A2.88026
G1 X84.164 Y110.712 A2.90186
G1 X83.732 Y110.043 A2.92649
G1 X83.366 Y109.427 A2.94868
G1 X82.902 Y108.557 A2.97918
G1 X82.585 Y107.889 A3.00204
G1 X82.226 Y107.043 A3.03048
G1 X81.946 Y106.295 A3.05519
G1 X81.719 Y105.592 A3.07804
G1 X81.487 Y104.775 A3.10432
G1 X81.334 Y104.134 A3.12472
G1 X81.158 Y103.252 A3.15256
G1 X81.020 Y102.311 A3.18198
G1 X80.941 Y101.552 A3.20560
G1 X80.885 Y100.618 A3.23453
G1 X80.881 Y99.591 A3.26632
G1 X80.907 Y98.916 A3.28721
G1 X80.958 Y98.242 A3.30814
G1 X81.054 Y97.416 A3.33385
G1 X81.175 Y96.651 A3.35782
G1 X81.368 Y95.693 A3.38807
G1 X81.533 Y95.035 A3.40905
G1 X81.800 Y94.131 A3.43821
G1 X82.007 Y93.521 A3.45815
G1 X82.324 Y92.700 A3.48539
G1 X82.629 Y92.001 A3.50896
G1 X83.081 Y91.085 A3.54059
G1 X83.425 Y90.457 A3.56275
G1 X83.887 Y89.699 A3.59020
G1 X84.341 Y89.019 A3.61551
G1 X84.818 Y88.369 A3.64044
G1 X85.340 Y87.713 A3.66638
G1 X85.772 Y87.216 A3.68676
G1 X86.413 Y86.535 A3.71569
G1 A1.71569 F2400.00000
G1 X107.495 Y108.026 F7800.000
G1 A3.71569 F2400.00000
G1 X106.691 Y108.711 A3.74838 F1800.000
G1 X105.710 Y109.379 A3.78510
G1 X105.110 Y109.720 A3.80648
G1 X104.851 Y109.836 A3.81525
G1 X104.672 Y109.941 A3.82167
G1 X103.872 Y110.273 A3.84847
G1 X102.743 Y110.628 A3.88508
G1 X101.735 Y110.837 A3.91693
G1 X100.785 Y110.966 A3.94661
G1 X99.575 Y110.952 A3.98404
G1 X99.344 Y110.985 A3.99126
G1 X99.227 Y110.950 A3.99505
G1 X98.248 Y110.834 A4.02554
G1 X97.242 Y110.626 A4.05734
G1 X96.416 Y110.372 A4.08407
G1 X95.364 Y109.953 A4.11912
G1 X94.474 Y109.482 A4.15028
G1 X94.095 Y109.254 A4.16396
G1 X93.441 Y108.800 A4.18858
G1 X92.756 Y108.248 A4.21581
G1 X92.293 Y107.817 A4.23537
G1 X91.965 Y107.477 A4.24999
G1 X91.289 Y106.680 A4.28232
G1 X90.863 Y106.084 A4.30500
G1 X90.616 Y105.693 A4.31932
G1 X90.285 Y105.111 A4.34002
G1 X90.044 Y104.629 A4.35671
G1 X89.607 Y103.541 A4.39298
G1 X89.371 Y102.735 A4.41896
G1 X89.162 Y101.738 A4.45049
G1 X89.068 Y101.012 A4.47312
G1 X89.063 Y100.797 A4.47978
G1 X89.021 Y100.626 A4.48523
G1 X89.046 Y100.394 A4.49245
G1 X89.033 Y99.257 A4.52764
G1 X89.160 Y98.250 A4.55905
G1 X89.373 Y97.225 A4.59142
G1 X89.613 Y96.436 A4.61694
G1 X90.056 Y95.328 A4.65386
G1 X90.162 Y95.148 A4.66035
G1 X90.279 Y94.888 A4.66917
G1 X90.608 Y94.310 A4.68974
G1 X90.865 Y93.901 A4.70469
G1 X91.294 Y93.301 A4.72750
G1 X91.964 Y92.511 A4.75955
G1 X92.754 Y91.741 A4.79367
G1 X93.468 Y91.165 A4.82207
G1 X94.300 Y90.610 A4.85303
G1 X94.890 Y90.274 A4.87402
G1 X95.360 Y90.039 A4.89029
G1 X96.459 Y89.596 A4.92695
G1 X97.244 Y89.361 A4.95230
G1 X98.296 Y89.140 A4.98554
G1 X98.452 Y89.137 A4.99038
G1 X98.961 Y89.062 A5.00630
G1 X99.586 Y89.022 A5.02567 F1800.000
G1 X100.655 Y89.026 A5.05876
G1 X101.750 Y89.152 A5.09286
G1 X102.302 Y89.252 A5.11023
G1 X103.228 Y89.494 A5.13984
G1 X103.872 Y89.714 A5.16088
G1 X104.698 Y90.062 A5.18861
G1 X105.690 Y90.598 A5.22353
G1 X106.232 Y90.947 A5.24344
G1 X106.699 Y91.284 A5.26128
G1 X107.382 Y91.859 A5.28890
G1 X108.045 Y92.512 A5.31770
G1 X108.715 Y93.299 A5.34966
G1 X109.053 Y93.768 A5.36757
G1 X109.396 Y94.302 A5.38718
G1 X109.729 Y94.890 A5.40809
G1 X109.955 Y95.340 A5.42367
G1 X110.290 Y96.140 A5.45052
G1 X110.651 Y97.272 A5.48729
G1 X110.849 Y98.266 A5.51864
G1 X110.974 Y99.279 A5.55023
G1 X110.974 Y100.732 A5.59520
G1 X110.847 Y101.737 A5.62655
G1 X110.744 Y102.303 A5.64432
G1 X110.630 Y102.770 A5.65920
G1 X110.291 Y103.846 A5.69413
G1 X109.953 Y104.652 A5.72115
G1 X109.603 Y105.332 A5.74484
G1 X109.253 Y105.922 A5.76605
G1 X108.719 Y106.683 A5.79482
G1 X108.158 Y107.352 A5.82184
G1 X107.548 Y107.972 A5.84875
G1 X107.069 Y107.568 F7800.000
G1 X106.311 Y108.213 A5.87954 F1800.000
G1 X105.379 Y108.848 A5.91444
G1 X104.827 Y109.162 A5.93410
G1 X104.564 Y109.280 A5.94302
G1 X104.392 Y109.381 A5.94918
G1 X103.658 Y109.686 A5.97377
G1 X102.586 Y110.022 A6.00855
G1 X101.632 Y110.220 A6.03868
G1 X100.835 Y110.325 A6.06356
G1 X100.716 Y110.318 A6.06725
G1 X100.665 Y110.339 A6.06897
G1 X99.534 Y110.327 A6.10395
G1 X99.393 Y110.347 A6.10835
G1 X99.298 Y110.318 A6.11144
G1 X99.213 Y110.324 A6.11408
G1 X98.350 Y110.217 A6.14097
G1 X97.397 Y110.020 A6.17108
G1 X96.624 Y109.782 A6.19612
G1 X95.626 Y109.385 A6.22935
G1 X94.781 Y108.937 A6.25894
G1 X94.434 Y108.729 A6.27146
G1 X93.816 Y108.299 A6.29475
G1 X93.165 Y107.775 A6.32061
G1 X92.731 Y107.371 A6.33895
G1 X92.429 Y107.058 A6.35243
G1 X91.783 Y106.296 A6.38334
G1 X91.382 Y105.735 A6.40466
G1 X91.152 Y105.371 A6.41798
G1 X90.837 Y104.816 A6.43773
G1 X90.614 Y104.372 A6.45311
G1 X90.198 Y103.336 A6.48764
G1 X89.978 Y102.583 A6.51193
G1 X89.779 Y101.633 A6.54195
G1 X89.692 Y100.965 A6.56280
G1 X89.686 Y100.715 A6.57052
G1 X89.654 Y100.584 A6.57469
G1 X89.672 Y100.424 A6.57969
G1 X89.659 Y99.350 A6.61293
G1 X89.681 Y99.278 A6.61525
G1 X89.675 Y99.196 A6.61781
G1 X89.777 Y98.351 A6.64414
G1 X89.979 Y97.380 A6.67483
G1 X90.203 Y96.643 A6.69864
G1 X90.618 Y95.605 A6.73326
G1 X90.718 Y95.435 A6.73935
G1 X90.837 Y95.171 A6.74832
G1 X91.144 Y94.631 A6.76754
G1 X91.384 Y94.249 A6.78149
G1 X91.787 Y93.686 A6.80292
G1 X92.422 Y92.938 A6.83326
G1 X93.169 Y92.209 A6.86556
G1 X93.839 Y91.669 A6.89217
G1 X94.629 Y91.142 A6.92157
G1 X95.184 Y90.826 A6.94134
G1 X95.617 Y90.610 A6.95632
G1 X96.666 Y90.186 A6.99132
G1 X97.398 Y89.967 A7.01496
G1 X98.367 Y89.763 A7.04560
G1 X98.505 Y89.760 A7.04985
G1 X99.026 Y89.684 A7.06616
G1 X99.604 Y89.647 A7.08409 F1800.000
G1 X100.618 Y89.650 A7.11545
G1 X101.658 Y89.771 A7.14786
G1 X102.173 Y89.863 A7.16402
G1 X103.043 Y90.091 A7.19186
G1 X103.649 Y90.298 A7.21168
G1 X104.427 Y90.626 A7.23780
G1 X105.372 Y91.137 A7.27105
G1 X105.880 Y91.463 A7.28971
G1 X106.315 Y91.777 A7.30631
G1 X106.961 Y92.321 A7.33244
G1 X107.587 Y92.938 A7.35965
G1 X108.222 Y93.685 A7.38997
G1 X108.536 Y94.120 A7.40659
G1 X108.861 Y94.625 A7.42515
G1 X109.177 Y95.184 A7.44503
G1 X109.387 Y95.601 A7.45946
G1 X109.703 Y96.356 A7.48480
G1 X110.035 Y97.397 A7.51860
G1 X110.231 Y98.359 A7.54898
G1 X110.332 Y99.187 A7.57479
G1 X110.329 Y99.302 A7.57834
G1 X110.350 Y99.370 A7.58054
G1 X110.349 Y100.634 A7.61966
G1 X110.327 Y100.701 A7.62182
G1 X110.331 Y100.803 A7.62499
G1 X110.229 Y101.644 A7.65120
G1 X110.133 Y102.172 A7.66782
G1 X110.028 Y102.601 A7.68149
G1 X109.703 Y103.631 A7.71490
G1 X109.387 Y104.388 A7.74027
G1 X109.056 Y105.030 A7.76262
G1 X108.727 Y105.583 A7.78252
G1 X108.223 Y106.302 A7.80972
G1 X107.695 Y106.932 A7.83513
G1 X107.122 Y107.514 A7.86042
G1 X107.174 Y108.057 F7800.000
G1 X107.894 Y108.392 F7800.000
G1 X107.271 Y108.940 A7.88607 F1800.000
G1 X106.833 Y109.278 A7.90321
G1 X106.377 Y109.599 A7.92046
G1 X105.924 Y109.885 A7.93701
G1 X105.441 Y110.158 A7.95418
G1 X104.862 Y110.448 A7.97423
G1 X103.923 Y110.835 A8.00564
G1 X103.381 Y111.016 A8.02333
G1 X102.910 Y111.147 A8.03846
G1 X101.927 Y111.356 A8.06957
G1 X101.332 Y111.444 A8.08816
G1 X100.703 Y111.501 A8.10772
G1 X99.629 Y111.517 A8.14093
G1 X99.105 Y111.487 A8.15718
G1 X98.424 Y111.411 A8.17837
G1 X97.459 Y111.235 A8.20874
G1 X96.382 Y110.937 A8.24330
G1 X95.823 Y110.734 A8.26172
G1 X95.155 Y110.451 A8.28417
G1 X94.275 Y109.997 A8.31480
G1 X93.768 Y109.689 A8.33317
G1 X93.214 Y109.309 A8.35393
G1 X92.564 Y108.800 A8.37949
G1 X92.197 Y108.475 A8.39466
G1 X91.556 Y107.833 A8.42270
G1 X91.191 Y107.423 A8.43970
G1 X90.850 Y106.996 A8.45662
G1 X90.434 Y106.416 A8.47871
G1 X90.070 Y105.841 A8.49976
G1 X89.565 Y104.877 A8.53343
G1 X89.177 Y103.947 A8.56461
G1 X88.848 Y102.886 A8.59896
G1 X88.692 Y102.193 A8.62096
G1 X88.617 Y101.771 A8.63421
G1 X88.527 Y101.068 A8.65614
G1 X88.498 Y100.689 A8.66791
G1 X88.482 Y99.609 A8.70135
G1 X88.557 Y98.648 A8.73115
G1 X88.663 Y97.947 A8.75309
G1 X88.880 Y96.977 A8.78384
G1 X89.059 Y96.381 A8.80311
G1 X89.377 Y95.532 A8.83114
G1 X89.846 Y94.549 A8.86486
G1 X90.075 Y94.140 A8.87936
G1 X90.659 Y93.249 A8.91233
G1 X91.065 Y92.717 A8.93303
G1 X91.376 Y92.349 A8.94795
G1 X91.861 Y91.836 A8.96979
G1 X92.585 Y91.173 A9.00014
G1 X93.080 Y90.779 A9.01974
G1 X93.637 Y90.387 A9.04081
G1 X94.510 Y89.862 A9.07232
G1 X95.151 Y89.539 A9.09454
G1 X95.600 Y89.344 A9.10969
G1 X96.628 Y88.975 A9.14347
G1 X97.662 Y88.710 A9.17649
G1 X98.233 Y88.606 A9.19444
G1 X98.802 Y88.531 A9.21222
G1 X99.330 Y88.486 A9.22860
G1 X100.384 Y88.472 A9.26124
G1 X101.076 Y88.515 A9.28267 F1800.000
G1 X101.561 Y88.574 A9.29779
G1 X102.285 Y88.697 A9.32052
G1 X102.883 Y88.832 A9.33948
G1 X103.399 Y88.980 A9.35609
G1 X103.966 Y89.170 A9.37460
G1 X104.874 Y89.547 A9.40502
G1 X105.467 Y89.844 A9.42554
G1 X106.358 Y90.376 A9.45765
G1 X107.276 Y91.052 A9.49292
G1 X107.794 Y91.497 A9.51404
G1 X108.179 Y91.864 A9.53051
G1 X108.890 Y92.651 A9.56332
G1 X109.339 Y93.235 A9.58611
G1 X109.660 Y93.699 A9.60358
G1 X110.159 Y94.545 A9.63396
G1 X110.459 Y95.140 A9.65459
G1 X110.678 Y95.640 A9.67147
G1 X110.937 Y96.344 A9.69468
G1 X111.082 Y96.809 A9.70974
G1 X111.258 Y97.502 A9.73186
G1 X111.422 Y98.411 A9.76046
G1 X111.500 Y99.123 A9.78261
G1 X111.527 Y99.628 A9.79827
G1 X111.527 Y100.355 A9.82075
G1 X111.500 Y100.880 A9.83702
G1 X111.421 Y101.584 A9.85894
G1 X111.318 Y102.196 A9.87815
G1 X111.186 Y102.796 A9.89715
G1 X111.002 Y103.440 A9.91789
G1 X110.840 Y103.922 A9.93360
G1 X110.469 Y104.827 A9.96387
G1 X110.171 Y105.423 A9.98449
G1 X109.857 Y105.976 A10.00415
G1 X109.295 Y106.814 A10.03539
G1 X108.885 Y107.346 A10.05618
G1 X108.491 Y107.795 A10.07464
G1 X107.947 Y108.339 A10.09847
G1 X108.336 Y108.834 F7800.000
G1 X107.666 Y109.425 A10.12610 F1800.000
G1 X107.204 Y109.781 A10.14416
G1 X106.724 Y110.119 A10.16233
G1 X106.245 Y110.421 A10.17984
G1 X105.735 Y110.710 A10.19796
G1 X105.121 Y111.017 A10.21920
G1 X104.142 Y111.421 A10.25199
G1 X103.564 Y111.613 A10.27082
G1 X103.059 Y111.754 A10.28705
G1 X102.037 Y111.971 A10.31937
G1 X101.406 Y112.065 A10.33910
G1 X100.736 Y112.126 A10.35994
G1 X99.616 Y112.143 A10.39460
G1 X99.052 Y112.110 A10.41206
G1 X98.334 Y112.030 A10.43443
G1 X97.325 Y111.845 A10.46617
G1 X96.619 Y111.663 A10.48873
G1 X96.184 Y111.530 A10.50280
G1 X95.594 Y111.316 A10.52222
G1 X94.889 Y111.017 A10.54591
G1 X93.969 Y110.542 A10.57793
G1 X93.428 Y110.214 A10.59752
G1 X92.845 Y109.813 A10.61942
G1 X92.164 Y109.280 A10.64616
G1 X91.768 Y108.931 A10.66251
G1 X91.101 Y108.262 A10.69172
G1 X90.714 Y107.826 A10.70977
G1 X90.351 Y107.374 A10.72770
G1 X89.915 Y106.765 A10.75087
G1 X89.528 Y106.154 A10.77327
G1 X88.999 Y105.143 A10.80857
G1 X88.592 Y104.170 A10.84120
G1 X88.243 Y103.043 A10.87770
G1 X88.079 Y102.317 A10.90074
G1 X87.999 Y101.866 A10.91492
G1 X87.906 Y101.132 A10.93779
G1 X87.873 Y100.718 A10.95064
G1 X87.857 Y99.589 A10.98560
G1 X87.936 Y98.577 A11.01699
G1 X88.048 Y97.839 A11.04008
G1 X88.278 Y96.812 A11.07266
G1 X88.467 Y96.181 A11.09302
G1 X88.801 Y95.288 A11.12253
G1 X89.290 Y94.261 A11.15773
G1 X89.538 Y93.819 A11.17339
G1 X90.154 Y92.881 A11.20812
G1 X90.578 Y92.325 A11.22975
G1 X90.910 Y91.932 A11.24568
G1 X91.422 Y91.390 A11.26876
G1 X92.179 Y90.698 A11.30049
G1 X92.706 Y90.279 A11.32132
G1 X93.296 Y89.863 A11.34365
G1 X94.208 Y89.315 A11.37659
G1 X94.886 Y88.973 A11.40006
G1 X95.365 Y88.765 A11.41622
G1 X96.446 Y88.377 A11.45177
G1 X97.099 Y88.197 A11.47274
G1 X97.537 Y88.098 A11.48661
G1 X98.136 Y87.988 A11.50546
G1 X98.735 Y87.910 A11.52415
G1 X99.296 Y87.861 A11.54158
G1 X100.405 Y87.847 A11.57589
G1 X101.133 Y87.893 A11.59846 F1800.000
G1 X101.651 Y87.956 A11.61460
G1 X102.406 Y88.084 A11.63831
G1 X103.038 Y88.226 A11.65834
G1 X103.584 Y88.383 A11.67592
G1 X104.179 Y88.582 A11.69535
G1 X105.141 Y88.982 A11.72756
G1 X105.761 Y89.293 A11.74903
G1 X106.246 Y89.568 A11.76629
G1 X106.710 Y89.859 A11.78324
G1 X107.665 Y90.563 A11.81995
G1 X108.213 Y91.033 A11.84229
G1 X108.627 Y91.428 A11.85999
G1 X109.370 Y92.251 A11.89428
G1 X109.844 Y92.866 A11.91833
G1 X110.187 Y93.363 A11.93699
G1 X110.708 Y94.245 A11.96868
G1 X111.025 Y94.874 A11.99050
G1 X111.258 Y95.407 A12.00849
G1 X111.528 Y96.143 A12.03275
G1 X111.683 Y96.639 A12.04882
G1 X111.867 Y97.363 A12.07194
G1 X112.042 Y98.328 A12.10227
G1 X112.123 Y99.072 A12.12544
G1 X112.152 Y99.611 A12.14215
G1 X112.152 Y100.371 A12.16566
G1 X112.123 Y100.931 A12.18300
G1 X112.041 Y101.671 A12.20604
G1 X111.931 Y102.316 A12.22627
G1 X111.792 Y102.949 A12.24634
G1 X111.599 Y103.626 A12.26812
G1 X111.426 Y104.140 A12.28491
G1 X111.038 Y105.085 A12.31652
