; generated by Slic3r 1.2.9 on 2017-11-07 at 22:20:53

; external perimeters extrusion width = 0.50mm
; perimeters extrusion width = 0.72mm
; infill extrusion width = 0.72mm
; solid infill extrusion width = 0.72mm
; top infill extrusion width = 0.72mm

M107
M104 S200 ; set temperature
G28 ; home all axes
G1 Z5 F5000 ; lift nozzle

M109 S200 ; wait for temperature to be reached
G21 ; set units to millimeters
G90 ; use absolute coordinates
M82 ; use absolute distances for extrusion
G92 E0
G1 Z0.350 F7800.000
G1 E-2.00000 F2400.00000
G92 E0
G1 X86.466 Y86.482 F7800.000
G1 E2.00000 F2400.00000
G1 X87.114 Y85.865 E2.02768 F1800.000
G1 X87.777 Y85.287 E2.05490
G1 X88.542 Y84.682 E2.08509
G1 X89.408 Y84.072 E2.11785
G1 X90.035 Y83.673 E2.14086
G1 X90.843 Y83.205 E2.16972
G1 X91.828 Y82.704 E2.20394
G1 X92.602 Y82.360 E2.23013
G1 X93.385 Y82.052 E2.25616
G1 X94.383 Y81.715 E2.28876
G1 X95.364 Y81.441 E2.32028
G1 X96.181 Y81.256 E2.34621
G1 X97.294 Y81.061 E2.38115
G1 X98.367 Y80.937 E2.41457
G1 X99.318 Y80.878 E2.44406
G1 X100.007 Y80.871 E2.46538
G1 X100.711 Y80.879 E2.48718 F1800.000
G1 X101.734 Y80.944 E2.51888
G1 X102.591 Y81.045 E2.54559
G1 X103.391 Y81.172 E2.57064
G1 X104.192 Y81.335 E2.59595
G1 X104.897 Y81.504 E2.61837
G1 X105.678 Y81.730 E2.64353
G1 X106.518 Y82.011 E2.67093
G1 X107.198 Y82.272 E2.69347
G1 X108.026 Y82.632 E2.72141
G1 X108.768 Y82.994 E2.74697
G1 X109.502 Y83.393 E2.77280
G1 X110.117 Y83.762 E2.79501
G1 X110.811 Y84.213 E2.82061
G1 X111.458 Y84.680 E2.84529
G1 X112.109 Y85.187 E2.87083
G1 X112.556 Y85.561 E2.88885
G1 X113.220 Y86.167 E2.91667
G1 X113.684 Y86.624 E2.93683
G1 X114.203 Y87.178 E2.96032
G1 X114.805 Y87.879 E2.98892
G1 X115.323 Y88.547 E3.01506
G1 X115.752 Y89.138 E3.03766
G1 X116.284 Y89.954 E3.06779
G1 X116.743 Y90.744 E3.09608
G1 X117.112 Y91.443 E3.12051
G1 X117.452 Y92.155 E3.14493
G1 X117.765 Y92.896 E3.16983
G1 X118.113 Y93.842 E3.20101
G1 X118.354 Y94.600 E3.22564
G1 X118.583 Y95.448 E3.25281
G1 X118.743 Y96.164 E3.27551
G1 X118.910 Y97.099 E3.30489
G1 X118.995 Y97.714 E3.32409
G1 X119.081 Y98.581 E3.35106
G1 X119.124 Y99.393 E3.37622
G1 X119.127 Y100.393 E3.40715
G1 X119.098 Y101.143 E3.43039
G1 X119.042 Y101.843 E3.45212
G1 X118.943 Y102.674 E3.47800
G1 X118.789 Y103.591 E3.50679
G1 X118.587 Y104.522 E3.53626
G1 X118.392 Y105.257 E3.55977
G1 X118.165 Y105.996 E3.58369
G1 X117.667 Y107.333 E3.62785
G1 X117.324 Y108.109 E3.65408
G1 X116.885 Y108.984 E3.68437
G1 X116.413 Y109.821 E3.71411
G1 X115.994 Y110.490 E3.73853
G1 X115.669 Y110.968 E3.75643
G1 X115.089 Y111.753 E3.78662
G1 X114.678 Y112.265 E3.80694
G1 X114.025 Y113.004 E3.83745
G1 X113.493 Y113.556 E3.86119
G1 X112.879 Y114.141 E3.88742
G1 X112.359 Y114.596 E3.90880
G1 X111.651 Y115.163 E3.93686
G1 X110.877 Y115.729 E3.96653
G1 X110.398 Y116.049 E3.98435
G1 X109.741 Y116.457 E4.00828
G1 X109.002 Y116.872 E4.03453
G1 X108.151 Y117.299 E4.06396
G1 X107.361 Y117.650 E4.09073
G1 X106.640 Y117.933 E4.11470
G1 X106.005 Y118.156 E4.13549
G1 X105.165 Y118.410 E4.16265
G1 X104.312 Y118.628 E4.18990
G1 X103.429 Y118.810 E4.21779
G1 X102.589 Y118.943 E4.24411
G1 X101.773 Y119.039 E4.26952
G1 X101.076 Y119.093 E4.29116
G1 X100.494 Y119.117 E4.30920
G1 X99.427 Y119.115 E4.34220
G1 X98.509 Y119.063 E4.37064
G1 X97.710 Y118.982 E4.39550
G1 X96.822 Y118.854 E4.42325
G1 X95.978 Y118.691 E4.44987
G1 X95.249 Y118.517 E4.47304
G1 X94.504 Y118.312 E4.49695
G1 X93.888 Y118.116 E4.51695
G1 X93.015 Y117.796 E4.54573
G1 X92.181 Y117.447 E4.57370
G1 X91.478 Y117.114 E4.59777
G1 X90.606 Y116.653 E4.62828
G1 X89.930 Y116.251 E4.65264
G1 X89.256 Y115.814 E4.67747
G1 X88.673 Y115.403 E4.69954
G1 X88.231 Y115.068 E4.71672
G1 X87.548 Y114.509 E4.74400
G1 X86.967 Y113.990 E4.76813
G1 X86.281 Y113.317 E4.79784
G1 X85.632 Y112.617 E4.82739
G1 X85.179 Y112.077 E4.84919
G1 X84.566 Y111.282 E4.88026
G1 X84.164 Y110.712 E4.90186
G1 X83.732 Y110.043 E4.92649
G1 X83.366 Y109.427 E4.94868
G1 X82.902 Y108.557 E4.97918
G1 X82.585 Y107.889 E5.00204
G1 X82.226 Y107.043 E5.03048
G1 X81.946 Y106.295 E5.05519
G1 X81.719 Y105.592 E5.07804
G1 X81.487 Y104.775 E5.10432
G1 X81.334 Y104.134 E5.12472
G1 X81.158 Y103.252 E5.15256
G1 X81.020 Y102.311 E5.18198
G1 X80.941 Y101.552 E5.20560
G1 X80.885 Y100.618 E5.23453
G1 X80.881 Y99.591 E5.26632
G1 X80.907 Y98.916 E5.28721
G1 X80.958 Y98.242 E5.30814
G1 X81.054 Y97.416 E5.33385
G1 X81.175 Y96.651 E5.35782
G1 X81.368 Y95.693 E5.38807
G1 X81.533 Y95.035 E5.40905
G1 X81.800 Y94.131 E5.43821
G1 X82.007 Y93.521 E5.45815
G1 X82.324 Y92.700 E5.48539
G1 X82.629 Y92.001 E5.50896
G1 X83.081 Y91.085 E5.54059
G1 X83.425 Y90.457 E5.56275
G1 X83.887 Y89.699 E5.59020
G1 X84.341 Y89.019 E5.61551
G1 X84.818 Y88.369 E5.64044
G1 X85.340 Y87.713 E5.66638
G1 X85.772 Y87.216 E5.68676
G1 X86.413 Y86.535 E5.71569
G1 E3.71569 F2400.00000
G92 E0
G1 X107.495 Y108.026 F7800.000
G1 E2.00000 F2400.00000
G1 X106.691 Y108.711 E2.03268 F1800.000
G1 X105.710 Y109.379 E2.06941
G1 X105.110 Y109.720 E2.09078
G1 X104.851 Y109.836 E2.09955
G1 X104.672 Y109.941 E2.10597
G1 X103.872 Y110.273 E2.13278
G1 X102.743 Y110.628 E2.16938
G1 X101.735 Y110.837 E2.20123
G1 X100.785 Y110.966 E2.23092
G1 X99.575 Y110.952 E2.26834
G1 X99.344 Y110.985 E2.27556
G1 X99.227 Y110.950 E2.27935
G1 X98.248 Y110.834 E2.30984
G1 X97.242 Y110.626 E2.34165
G1 X96.416 Y110.372 E2.36837
G1 X95.364 Y109.953 E2.40343
G1 X94.474 Y109.482 E2.43458
G1 X94.095 Y109.254 E2.44827
G1 X93.441 Y108.800 E2.47289
G1 X92.756 Y108.248 E2.50012
G1 X92.293 Y107.817 E2.51967
G1 X91.965 Y107.477 E2.53429
G1 X91.289 Y106.680 E2.56662
G1 X90.863 Y106.084 E2.58931
G1 X90.616 Y105.693 E2.60362
G1 X90.285 Y105.111 E2.62433
G1 X90.044 Y104.629 E2.64102
G1 X89.607 Y103.541 E2.67728
G1 X89.371 Y102.735 E2.70327
G1 X89.162 Y101.738 E2.73479
G1 X89.068 Y101.012 E2.75742
G1 X89.063 Y100.797 E2.76408
G1 X89.021 Y100.626 E2.76953
G1 X89.046 Y100.394 E2.77675
G1 X89.033 Y99.257 E2.81195
G1 X89.160 Y98.250 E2.84336
G1 X89.373 Y97.225 E2.87573
G1 X89.613 Y96.436 E2.90125
G1 X90.056 Y95.328 E2.93817
G1 X90.162 Y95.148 E2.94465
G1 X90.279 Y94.888 E2.95348
G1 X90.608 Y94.310 E2.97404
G1 X90.865 Y93.901 E2.98900
G1 X91.294 Y93.301 E3.01181
G1 X91.964 Y92.511 E3.04386
G1 X92.754 Y91.741 E3.07798
G1 X93.468 Y91.165 E3.10637
G1 X94.300 Y90.610 E3.13733
G1 X94.890 Y90.274 E3.15832
G1 X95.360 Y90.039 E3.17459
G1 X96.459 Y89.596 E3.21125
G1 X97.244 Y89.361 E3.23660
G1 X98.296 Y89.140 E3.26985
G1 X98.452 Y89.137 E3.27469
G1 X98.961 Y89.062 E3.29061
G1 X99.586 Y89.022 E3.30998 F1800.000
G1 X100.655 Y89.026 E3.34306
G1 X101.750 Y89.152 E3.37717
G1 X102.302 Y89.252 E3.39453
G1 X103.228 Y89.494 E3.42414
G1 X103.872 Y89.714 E3.44519
G1 X104.698 Y90.062 E3.47292
G1 X105.690 Y90.598 E3.50784
G1 X106.232 Y90.947 E3.52775
G1 X106.699 Y91.284 E3.54559
G1 X107.382 Y91.859 E3.57321
G1 X108.045 Y92.512 E3.60201
G1 X108.715 Y93.299 E3.63397
G1 X109.053 Y93.768 E3.65188
G1 X109.396 Y94.302 E3.67149
G1 X109.729 Y94.890 E3.69240
G1 X109.955 Y95.340 E3.70798
G1 X110.290 Y96.140 E3.73482
G1 X110.651 Y97.272 E3.77160
G1 X110.849 Y98.266 E3.80295
G1 X110.974 Y99.279 E3.83453
G1 X110.974 Y100.732 E3.87950
G1 X110.847 Y101.737 E3.91085
G1 X110.744 Y102.303 E3.92863
G1 X110.630 Y102.770 E3.94351
G1 X110.291 Y103.846 E3.97843
G1 X109.953 Y104.652 E4.00545
G1 X109.603 Y105.332 E4.02914
G1 X109.253 Y105.922 E4.05036
G1 X108.719 Y106.683 E4.07912
G1 X108.158 Y107.352 E4.10614
G1 X107.548 Y107.972 E4.13305
G1 X107.069 Y107.568 F7800.000
G1 X106.311 Y108.213 E4.16385 F1800.000
G1 X105.379 Y108.848 E4.19875
G1 X104.827 Y109.162 E4.21840
G1 X104.564 Y109.280 E4.22733
G1 X104.392 Y109.381 E4.23348
G1 X103.658 Y109.686 E4.25808
G1 X102.586 Y110.022 E4.29285
G1 X101.632 Y110.220 E4.32299
G1 X100.835 Y110.325 E4.34786
G1 X100.716 Y110.318 E4.35156
G1 X100.665 Y110.339 E4.35327
G1 X99.534 Y110.327 E4.38825
G1 X99.393 Y110.347 E4.39266
G1 X99.298 Y110.318 E4.39574
G1 X99.213 Y110.324 E4.39839
G1 X98.350 Y110.217 E4.42527
G1 X97.397 Y110.020 E4.45539
G1 X96.624 Y109.782 E4.48043
G1 X95.626 Y109.385 E4.51365
G1 X94.781 Y108.937 E4.54324
G1 X94.434 Y108.729 E4.55576
G1 X93.816 Y108.299 E4.57905
G1 X93.165 Y107.775 E4.60491
G1 X92.731 Y107.371 E4.62325
G1 X92.429 Y107.058 E4.63673
G1 X91.783 Y106.296 E4.66764
G1 X91.382 Y105.735 E4.68897
G1 X91.152 Y105.371 E4.70228
G1 X90.837 Y104.816 E4.72204
G1 X90.614 Y104.372 E4.73742
G1 X90.198 Y103.336 E4.77195
G1 X89.978 Y102.583 E4.79623
G1 X89.779 Y101.633 E4.82626
G1 X89.692 Y100.965 E4.84710
G1 X89.686 Y100.715 E4.85483
G1 X89.654 Y100.584 E4.85900
G1 X89.672 Y100.424 E4.86399
G1 X89.659 Y99.350 E4.89723
G1 X89.681 Y99.278 E4.89955
G1 X89.675 Y99.196 E4.90212
G1 X89.777 Y98.351 E4.92845
G1 X89.979 Y97.380 E4.95913
G1 X90.203 Y96.643 E4.98295
G1 X90.618 Y95.605 E5.01756
G1 X90.718 Y95.435 E5.02365
G1 X90.837 Y95.171 E5.03262
G1 X91.144 Y94.631 E5.05184
G1 X91.384 Y94.249 E5.06579
G1 X91.787 Y93.686 E5.08722
G1 X92.422 Y92.938 E5.11756
G1 X93.169 Y92.209 E5.14986
G1 X93.839 Y91.669 E5.17648
G1 X94.629 Y91.142 E5.20588
G1 X95.184 Y90.826 E5.22565
G1 X95.617 Y90.610 E5.24062
G1 X96.666 Y90.186 E5.27563
G1 X97.398 Y89.967 E5.29927
G1 X98.367 Y89.763 E5.32991
G1 X98.505 Y89.760 E5.33416
G1 X99.026 Y89.684 E5.35046
G1 X99.604 Y89.647 E5.36839 F1800.000
G1 X100.618 Y89.650 E5.39976
G1 X101.658 Y89.771 E5.43217
G1 X102.173 Y89.863 E5.44833
G1 X103.043 Y90.091 E5.47616
G1 X103.649 Y90.298 E5.49599
G1 X104.427 Y90.626 E5.52211
G1 X105.372 Y91.137 E5.55535
G1 X105.880 Y91.463 E5.57402
G1 X106.315 Y91.777 E5.59061
G1 X106.961 Y92.321 E5.61675
G1 X107.587 Y92.938 E5.64395
G1 X108.222 Y93.685 E5.67428
G1 X108.536 Y94.120 E5.69089
G1 X108.861 Y94.625 E5.70945
G1 X109.177 Y95.184 E5.72934
G1 X109.387 Y95.601 E5.74377
G1 X109.703 Y96.356 E5.76910
G1 X110.035 Y97.397 E5.80290
G1 X110.231 Y98.359 E5.83329
G1 X110.332 Y99.187 E5.85909
G1 X110.329 Y99.302 E5.86264
G1 X110.350 Y99.370 E5.86485
G1 X110.349 Y100.634 E5.90397
G1 X110.327 Y100.701 E5.90613
G1 X110.331 Y100.803 E5.90930
G1 X110.229 Y101.644 E5.93551
G1 X110.133 Y102.172 E5.95212
G1 X110.028 Y102.601 E5.96579
G1 X109.703 Y103.631 E5.99921
G1 X109.387 Y104.388 E6.02457
G1 X109.056 Y105.030 E6.04692
G1 X108.727 Y105.583 E6.06682
G1 X108.223 Y106.302 E6.09402
G1 X107.695 Y106.932 E6.11944
G1 X107.122 Y107.514 E6.14472
G1 X107.174 Y108.057 F7800.000
G1 X107.894 Y108.392 F7800.000
G1 X107.271 Y108.940 E6.17038 F1800.000
G1 X106.833 Y109.278 E6.18752
G1 X106.377 Y109.599 E6.20477
G1 X105.924 Y109.885 E6.22132
G1 X105.441 Y110.158 E6.23848
G1 X104.862 Y110.448 E6.25854
G1 X103.923 Y110.835 E6.28995
G1 X103.381 Y111.016 E6.30763
G1 X102.910 Y111.147 E6.32277
G1 X101.927 Y111.356 E6.35387
G1 X101.332 Y111.444 E6.37247
G1 X100.703 Y111.501 E6.39203
G1 X99.629 Y111.517 E6.42524
G1 X99.105 Y111.487 E6.44149
G1 X98.424 Y111.411 E6.46268
G1 X97.459 Y111.235 E6.49304
G1 X96.382 Y110.937 E6.52761
G1 X95.823 Y110.734 E6.54603
G1 X95.155 Y110.451 E6.56848
G1 X94.275 Y109.997 E6.59911
G1 X93.768 Y109.689 E6.61748
G1 X93.214 Y109.309 E6.63824
G1 X92.564 Y108.800 E6.66380
G1 X92.197 Y108.475 E6.67896
G1 X91.556 Y107.833 E6.70701
G1 X91.191 Y107.423 E6.72401
G1 X90.850 Y106.996 E6.74092
G1 X90.434 Y106.416 E6.76302
G1 X90.070 Y105.841 E6.78407
G1 X89.565 Y104.877 E6.81773
G1 X89.177 Y103.947 E6.84891
G1 X88.848 Y102.886 E6.88327
G1 X88.692 Y102.193 E6.90527
G1 X88.617 Y101.771 E6.91852
G1 X88.527 Y101.068 E6.94044
G1 X88.498 Y100.689 E6.95222
G1 X88.482 Y99.609 E6.98565
G1 X88.557 Y98.648 E7.01545
G1 X88.663 Y97.947 E7.03740
G1 X88.880 Y96.977 E7.06814
G1 X89.059 Y96.381 E7.08741
G1 X89.377 Y95.532 E7.11544
G1 X89.846 Y94.549 E7.14916
G1 X90.075 Y94.140 E7.16366
G1 X90.659 Y93.249 E7.19663
G1 X91.065 Y92.717 E7.21733
G1 X91.376 Y92.349 E7.23225
G1 X91.861 Y91.836 E7.25409
G1 X92.585 Y91.173 E7.28445
G1 X93.080 Y90.779 E7.30404
G1 X93.637 Y90.387 E7.32511
G1 X94.510 Y89.862 E7.35663
G1 X95.151 Y89.539 E7.37884
G1 X95.600 Y89.344 E7.39400
G1 X96.628 Y88.975 E7.42777
G1 X97.662 Y88.710 E7.46079
G1 X98.233 Y88.606 E7.47875
G1 X98.802 Y88.531 E7.49652
G1 X99.330 Y88.486 E7.51291
G1 X100.384 Y88.472 E7.54555
G1 X101.076 Y88.515 E7.56697 F1800.000
G1 X101.561 Y88.574 E7.58209
G1 X102.285 Y88.697 E7.60483
G1 X102.883 Y88.832 E7.62379
G1 X103.399 Y88.980 E7.64039
G1 X103.966 Y89.170 E7.65890
G1 X104.874 Y89.547 E7.68932
G1 X105.467 Y89.844 E7.70985
G1 X106.358 Y90.376 E7.74195
G1 X107.276 Y91.052 E7.77722
G1 X107.794 Y91.497 E7.79835
G1 X108.179 Y91.864 E7.81482
G1 X108.890 Y92.651 E7.84762
G1 X109.339 Y93.235 E7.87042
G1 X109.660 Y93.699 E7.88789
G1 X110.159 Y94.545 E7.91826
G1 X110.459 Y95.140 E7.93889
G1 X110.678 Y95.640 E7.95578
G1 X110.937 Y96.344 E7.97899
G1 X111.082 Y96.809 E7.99405
G1 X111.258 Y97.502 E8.01616
G1 X111.422 Y98.411 E8.04477
G1 X111.500 Y99.123 E8.06691
G1 X111.527 Y99.628 E8.08257
G1 X111.527 Y100.355 E8.10505
G1 X111.500 Y100.880 E8.12133
G1 X111.421 Y101.584 E8.14324
G1 X111.318 Y102.196 E8.16246
G1 X111.186 Y102.796 E8.18145
G1 X111.002 Y103.440 E8.20219
G1 X110.840 Y103.922 E8.21791
G1 X110.469 Y104.827 E8.24818
G1 X110.171 Y105.423 E8.26880
G1 X109.857 Y105.976 E8.28846
G1 X109.295 Y106.814 E8.31970
G1 X108.885 Y107.346 E8.34049
G1 X108.491 Y107.795 E8.35894
G1 X107.947 Y108.339 E8.38278
G1 X108.336 Y108.834 F7800.000
G1 X107.666 Y109.425 E8.41041 F1800.000
G1 X107.204 Y109.781 E8.42847
G1 X106.724 Y110.119 E8.44663
G1 X106.245 Y110.421 E8.46414
G1 X105.735 Y110.710 E8.48226
G1 X105.121 Y111.017 E8.50351
G1 X104.142 Y111.421 E8.53629
G1 X103.564 Y111.613 E8.55513
G1 X103.059 Y111.754 E8.57135
G1 X102.037 Y111.971 E8.60367
G1 X101.406 Y112.065 E8.62341
G1 X100.736 Y112.126 E8.64424
G1 X99.616 Y112.143 E8.67890
G1 X99.052 Y112.110 E8.69636
G1 X98.334 Y112.030 E8.71873
G1 X97.325 Y111.845 E8.75048
G1 X96.619 Y111.663 E8.77303
G1 X96.184 Y111.530 E8.78710
G1 X95.594 Y111.316 E8.80652
G1 X94.889 Y111.017 E8.83021
G1 X93.969 Y110.542 E8.86224
G1 X93.428 Y110.214 E8.88182
G1 X92.845 Y109.813 E8.90373
G1 X92.164 Y109.280 E8.93046
G1 X91.768 Y108.931 E8.94681
G1 X91.101 Y108.262 E8.97603
G1 X90.714 Y107.826 E8.99408
G1 X90.351 Y107.374 E9.01201
G1 X89.915 Y106.765 E9.03517
G1 X89.528 Y106.154 E9.05757
G1 X88.999 Y105.143 E9.09287
G1 X88.592 Y104.170 E9.12551
G1 X88.243 Y103.043 E9.16200
G1 X88.079 Y102.317 E9.18504
G1 X87.999 Y101.866 E9.19922
G1 X87.906 Y101.132 E9.22209
G1 X87.873 Y100.718 E9.23495
G1 X87.857 Y99.589 E9.26990
G1 X87.936 Y98.577 E9.30129
G1 X88.048 Y97.839 E9.32439
G1 X88.278 Y96.812 E9.35696
G1 X88.467 Y96.181 E9.37732
G1 X88.801 Y95.288 E9.40683
G1 X89.290 Y94.261 E9.44203
G1 X89.538 Y93.819 E9.45770
G1 X90.154 Y92.881 E9.49242
G1 X90.578 Y92.325 E9.51405
G1 X90.910 Y91.932 E9.52999
G1 X91.422 Y91.390 E9.55306
G1 X92.179 Y90.698 E9.58479
G1 X92.706 Y90.279 E9.60562
G1 X93.296 Y89.863 E9.62796
G1 X94.208 Y89.315 E9.66089
G1 X94.886 Y88.973 E9.68437
G1 X95.365 Y88.765 E9.70052
G1 X96.446 Y88.377 E9.73607
G1 X97.099 Y88.197 E9.75704
G1 X97.537 Y88.098 E9.77091
G1 X98.136 Y87.988 E9.78976
G1 X98.735 Y87.910 E9.80845
G1 X99.296 Y87.861 E9.82588
G1 X100.405 Y87.847 E9.86019
G1 X101.133 Y87.893 E9.88276 F1800.000
G1 X101.651 Y87.956 E9.89890
G1 X102.406 Y88.084 E9.92262
G1 X103.038 Y88.226 E9.94265
G1 X103.584 Y88.383 E9.96023
G1 X104.179 Y88.582 E9.97966
G1 X105.141 Y88.982 E10.01187
G1 X105.761 Y89.293 E10.03334
G1 X106.246 Y89.568 E10.05059
G1 X106.710 Y89.859 E10.06754
G1 X107.665 Y90.563 E10.10425
G1 X108.213 Y91.033 E10.12660
G1 X108.627 Y91.428 E10.14429
G1 X109.370 Y92.251 E10.17858
G1 X109.844 Y92.866 E10.20263
G1 X110.187 Y93.363 E10.22129
G1 X110.708 Y94.245 E10.25299
G1 X111.025 Y94.874 E10.27481
G1 X111.258 Y95.407 E10.29279
G1 X111.528 Y96.143 E10.31706
G1 X111.683 Y96.639 E10.33312
G1 X111.867 Y97.363 E10.35625
G1 X112.042 Y98.328 E10.38658
G1 X112.123 Y99.072 E10.40975
G1 X112.152 Y99.611 E10.42646
G1 X112.152 Y100.371 E10.44996
G1 X112.123 Y100.931 E10.46730
G1 X112.041 Y101.671 E10.49034
G1 X111.931 Y102.316 E10.51058
G1 X111.792 Y102.949 E10.53064
G1 X111.599 Y103.626 E10.55242
G1 X111.426 Y104.140 E10.56921
G1 X111.038 Y105.085 E10.60083
